!!!OTL: Der Spielmannssohn Als ich einmal klein's Bueweli war,
!!!ARE: Europa, Mitteleuropa, Deutschland / France, Lothringen,
!!    Kr. Saargemuend, Hambach
!!!YOR: 3, S. 167
!!    1927 aufgezeichnet
!!!SCT: Q0062A
!!!YEM: Copyright 1995, estate of Helmut Schaffrath.
**kern
*ICvox
*Ivox
*M6/4
*k[b-]
*F:
{4c
=1
4.f
8e
4f
2g
4cc
=2
4.a
8g
4a
2f}
{4f
=3
4.g
8a
4b-
4.cc
8b-
4a
=4
4.f
8g
4a
2g}
{4g
=5
4.cc
8dd
4cc
8cc
8b-
4a
4g
=6
4.f
8c
8f
8a
4.g
8a}
{4f
=7
4.g
8a
4b-
4.cc
8b-
4a
=8
2g
4cc
2f}
==
!!!AGN: Ballade, Verfuehrung, Standesunterschied, Strafe, Gnade
!! Verzierung (Nachschlag) in der dritten Zeile.
!!!ONB: ESAC (Essen Associative Code) Database: BALLADE
!!!AMT: compound duple
!!!AIN: vox
!!!EED: Helmut Schaffrath
!!!EEV: 1.0
*-
